X:272
T:Merrily Kiss'd the Quaker
R:Jig
O:Ireland
M:6/8
K:G
P:A
GAB D2B|c2A BGE|GAB DEG|A2A AGF|\
GAB D2B|c2A BGE|GAB D2E|GGG G3:|*
P:B
BGG AGG|BGG AGG|GAB DEG|A2A AGA|\
BGG AGG|BGG AGG|GAB D2E|GGG G3:|*
P:C
g3 a3|bge dBd|g2g gab|a2a agf|\
g3 f3|ege dBA|GAB D2E|GGG G3:|
